X:63
T:Up in the Air
M:6/8
L:1/8
C:Kevin Burke
S:Bdor
R:Jig
K:Bm
"Bmi"FBB BAB | "A"c2c AFE | "Bmi"FBB BAB | "A"cBA B2A |
"Bmi"FBB BAB | "A"c2c ABc | "D"def "A"ecA |1 "Bmi"FBB B2A :|2 "Bmi"FBB "
A"B2c||
|:"D"d2d "Emi"ede | "D/F#"fBB "G"BAB | "D"d2d "G"ede | "D"fdA "G"B2c |
"D"dcd "Emi"ede |1 "D"fdB "D/F"def | "G"gfe "A"dBA | "Bmi"FBB "A"B2c :|2
"Bmi"fgf "A"ecA | "Bmi"fgf "A"ecA | "F#mi"FBB B2A |
|
